!!!OTL: ES BLIES EIN JAEGER WOHL IN SEIN HORN
!!!ARE: Europa, Mitteleuropa, Deutschland
!!!SCT: Z0233
!!!YEM: Copyright 1995, estate of Helmut Schaffrath.
**kern
*ICvox
*Ivox
*M6/8
*k[f#]
*G:
{8d
=1
4g
8g
8g
8a
8b
=2
4a
8a
4a
8b
=3
4a
8a
4a}
{8d
=4
4g
8b
8dd
8cc
8b
=5
4a
8d
4d
8r}
=6
{8e
8e
8e
4e
8r
=7
8f#
8f#
8f#
4f#}
{8d
=8
8d
8g
8g
8g
8b
8b
=9
8d
8e
8f#
4g}
==
!!!AGN: Jaeger - Lied
!!!ONB: ESAC (Essen Associative Code) Database: ZUCCAL
!!!AMT: compound duple
!!!AIN: vox
!!!EED: Helmut Schaffrath
!!!EEV: 1.0
*-
